svgs/sharp-solid/microchip-ai.svg

<svg xmlns="http://www.w3.org/2000/svg" viewBox="0 0 512 512"><!--! Font Awesome Pro 6.6.0 by @fontawesome - https://fontawesome.com License - https://fontawesome.com/license (Commercial License) Copyright 2024 Fonticons, Inc. --><path d="M176 24l0-24L128 0l0 24 0 40L64 64l0 64-40 0L0 128l0 48 24 0 40 0 0 56-40 0L0 232l0 48 24 0 40 0 0 56-40 0L0 336l0 48 24 0 40 0 0 64 64 0 0 40 0 24 48 0 0-24 0-40 56 0 0 40 0 24 48 0 0-24 0-40 56 0 0 40 0 24 48 0 0-24 0-40 64 0 0-64 40 0 24 0 0-48-24 0-40 0 0-56 40 0 24 0 0-48-24 0-40 0 0-56 40 0 24 0 0-48-24 0-40 0 0-64-64 0 0-40 0-24L336 0l0 24 0 40-56 0 0-40 0-24L232 0l0 24 0 40-56 0 0-40zM352 176l0 16 0 128 0 16-32 0 0-16 0-128 0-16 32 0zM162.5 336l-34.9 0 9.8-22.4 14-32 42-96 4.2-9.6 20.9 0 4.2 9.6 42 96 14 32 9.8 22.4-34.9 0-4.2-9.6L239.5 304l-63.1 0-9.8 22.4-4.2 9.6zM208 231.9L190.5 272l35.1 0L208 231.9z"/></svg>

<svg xmlns="http://www.w3.org/2000/svg" viewBox="0 0 512 512"><!--! Font Awesome Pro 6.4.2 by @fontawesome - https://fontawesome.com License - https://fontawesome.com/license (Commercial License) Copyright 2023 Fonticons, Inc. --><path d="M176 24V0H128V24 64H64v64H24 0v48H24 64v56H24 0v48H24 64v56H24 0v48H24 64v64h64v40 24h48V488 448h56v40 24h48V488 448h56v40 24h48V488 448h64V384h40 24V336H488 448V280h40 24V232H488 448V176h40 24V128H488 448V64H384V24 0H336V24 64H280V24 0H232V24 64H176V24zM352 176v16V320v16H320V320 192 176h32zM162.5 336H127.5l9.8-22.4 14-32 42-96 4.2-9.6h20.9l4.2 9.6 42 96 14 32 9.8 22.4H253.5l-4.2-9.6L239.5 304H176.5l-9.8 22.4-4.2 9.6zM208 231.9L190.5 272h35.1L208 231.9z"/></svg>
